X:56
T:Reel 56
M:4/4
K:Amin
L:1/8
 (3G,^F,G, |A,>E, (3G,F,E, D,>E, (3G,A,B, |A,>G, (3G,A,G, G2GA|D>G, (3G,G,G,  (3G,A,G,  (3B,A,G, |D,>G, (3G,F,D, D,>G, (3G,G,G, |D,>D, (3G,G,G, C>G, (3B,G,G, |G,>G, (3G,A,G, G>C (3GGG | (3FED C>B, G,>A, (3B,A,G, |A,2G,2 |z||B,>C (3DCB, C>C (3CCG |D>C (3GCG E>C (3DCB, |C>D (3GGG A>G (3GGG |D>G, (3G,G,G, F,>D, (3D,G,B, |C>G, (3G,G,G, A,>C (3B,CB, |D>C (3GCG A>G (3GAG |F2FD CA,CB,G,G,|D2G,2 |
